assets/img/Область Контакты/inst.svg

<svg width="20" height="20" viewBox="0 0 20 20" fill="none" xmlns="http://www.w3.org/2000/svg">
<path d="M9.99731 5.12558C7.15795 5.12558 4.86644 7.30255 4.86644 10C4.86644 12.6974 7.15795 14.8744 9.99731 14.8744C12.8367 14.8744 15.1282 12.6974 15.1282 10C15.1282 7.30255 12.8367 5.12558 9.99731 5.12558ZM9.99731 13.168C8.16111 13.168 6.66262 11.7444 6.66262 10C6.66262 8.25557 8.16111 6.83198 9.99731 6.83198C11.8335 6.83198 13.332 8.25557 13.332 10C13.332 11.7444 11.8335 13.168 9.99731 13.168ZM15.3383 3.78993C14.6754 3.78993 14.14 4.29852 14.14 4.92832C14.14 5.55812 14.6754 6.06672 15.3383 6.06672C16.0013 6.06672 16.5366 5.5605 16.5366 4.92832C16.5368 4.77877 16.5059 4.63066 16.4458 4.49246C16.3856 4.35426 16.2974 4.22869 16.1861 4.12294C16.0748 4.01719 15.9426 3.93335 15.7971 3.8762C15.6516 3.81906 15.4957 3.78974 15.3383 3.78993ZM19.9989 10C19.9989 8.68811 20.0114 7.38811 19.9338 6.0786C19.8563 4.55757 19.4911 3.20766 18.3203 2.09541C17.147 0.980781 15.7286 0.636173 14.1275 0.562499C12.7466 0.488824 11.3782 0.500707 9.99981 0.500707C8.61891 0.500707 7.25051 0.488824 5.8721 0.562499C4.27105 0.636173 2.85012 0.983158 1.67935 2.09541C0.506076 3.21004 0.143338 4.55757 0.0657868 6.0786C-0.0117642 7.39049 0.000744099 8.69049 0.000744099 10C0.000744099 11.3095 -0.0117642 12.6119 0.0657868 13.9214C0.143338 15.4424 0.508578 16.7923 1.67935 17.9046C2.85262 19.0192 4.27105 19.3638 5.8721 19.4375C7.25301 19.5112 8.62141 19.4993 9.99981 19.4993C11.3807 19.4993 12.7491 19.5112 14.1275 19.4375C15.7286 19.3638 17.1495 19.0168 18.3203 17.9046C19.4936 16.79 19.8563 15.4424 19.9338 13.9214C20.0139 12.6119 19.9989 11.3119 19.9989 10ZM17.7974 15.604C17.6148 16.0366 17.3947 16.3598 17.0419 16.6925C16.6892 17.0276 16.3515 17.2368 15.8962 17.4103C14.5803 17.907 11.4558 17.7953 9.99731 17.7953C8.53885 17.7953 5.4118 17.907 4.09593 17.4126C3.64064 17.2391 3.30041 17.03 2.95018 16.6949C2.59745 16.3598 2.37731 16.039 2.19469 15.6064C1.67434 14.3539 1.79192 11.3856 1.79192 10C1.79192 8.61444 1.67434 5.64368 2.19469 4.39359C2.37731 3.96104 2.59745 3.63783 2.95018 3.3051C3.30291 2.97238 3.64064 2.76086 4.09593 2.58737C5.4118 2.09303 8.53885 2.20473 9.99731 2.20473C11.4558 2.20473 14.5828 2.09303 15.8987 2.58737C16.354 2.76086 16.6942 2.97 17.0444 3.3051C17.3972 3.6402 17.6173 3.96104 17.7999 4.39359C18.3203 5.64368 18.2027 8.61444 18.2027 10C18.2027 11.3856 18.3203 14.3539 17.7974 15.604Z" fill="#333333"/>
</svg>

<svg xmlns="http://www.w3.org/2000/svg" width="20" height="20" fill="none"><path fill="#333" d="M10 5.1A5 5 0 0 0 4.9 10a5 5 0 0 0 5.1 4.9 5 5 0 0 0 5.1-4.9A5 5 0 0 0 10 5.1Zm0 8A3.3 3.3 0 0 1 6.7 10c0-1.7 1.5-3.2 3.3-3.2 1.8 0 3.3 1.5 3.3 3.2 0 1.7-1.5 3.2-3.3 3.2Zm5.3-9.3c-.6 0-1.2.5-1.2 1.1 0 .7.6 1.2 1.2 1.2.7 0 1.2-.5 1.2-1.2a1 1 0 0 0-.3-.8 1.2 1.2 0 0 0-.9-.3ZM20 10V6c-.1-1.4-.5-2.8-1.7-3.9A6.1 6.1 0 0 0 14.1.6L10 .5H5.9c-1.6.1-3 .5-4.2 1.6a5.5 5.5 0 0 0-1.6 4L0 10v4c.1 1.4.5 2.8 1.7 3.9a6.1 6.1 0 0 0 4.2 1.5l4.1.1h4.1c1.6-.1 3-.5 4.2-1.6a5.5 5.5 0 0 0 1.6-4L20 10Zm-2.2 5.6a3 3 0 0 1-.8 1c-.3.4-.6.6-1.1.8-1.3.5-4.4.4-5.9.4s-4.6.1-5.9-.4L3 16.7a3 3 0 0 1-.8-1c-.5-1.3-.4-4.3-.4-5.7 0-1.4-.1-4.4.4-5.6.2-.4.4-.8.8-1 .3-.4.6-.6 1.1-.8 1.3-.5 4.4-.4 5.9-.4s4.6-.1 5.9.4l1.1.7c.4.3.6.7.8 1 .5 1.3.4 4.3.4 5.7 0 1.4.1 4.4-.4 5.6Z"/></svg>
